X: 160697
T: Paddy Fahey's #2
S: "Play 50 Reels" (Armagh Pipers' Club)
Z: B.Black
L: 1/8
M: 4/4
R: reel
K: C
cBGF DEFD |(3GAG DG BGBd |cBGA Bcde |fded cedB |
cBGF DEFD |(3GAG DG BGBd |cBGA Bcdc |(3BAG FD C4 :|
c2 eg fecd |cBGF DEFD |GcBc gceg |fdcB GccG |
c2 fd ecdc |BGGA B3 c |dggf defd |gfdc (3BAG AB :|
